src/topics/icons/alfresco.svg

<svg height="255" preserveAspectRatio="xMidYMid" viewBox="0 0 256 255" width="256" xmlns="http://www.w3.org/2000/svg"><g fill="#87c040"><path d="m88.9565187 166.907984 32.2995893-32.301662-48.5032721.002073h-.1160663c-26.8776359 0-48.6670087 21.789372-48.6670087 48.664936 0 26.879708 21.7873002 48.667009 48.6649361 48.667009 2.0415231 0 4.0498844-.140938 6.0250839-.385506-10.6221379-20.925094-7.1981824-47.154002 10.2967378-64.64685"/><path d="m128.336152 183.213225v-45.678302l-34.2955154 34.299661-.0829045.080832c-19.0058546 19.005854-19.0058546 49.819381 0 68.825235 19.0058549 19.005855 49.8193809 19.005855 68.8252359 0 1.442538-1.442538 2.737921-2.974198 3.962834-4.541093-22.297162-7.293523-38.407578-28.251778-38.40965-52.986333"/><path d="m167.713712 166.897621-32.299589-32.299589v48.619338c0 26.879709 21.789373 48.667009 48.667008 48.667009 26.877636 0 48.667009-21.7873 48.667009-48.664936 0-2.041523-.140937-4.049884-.385506-6.025084-20.925093 10.624211-47.154001 7.198182-64.648922-10.296738"/><path d="m241.546379 93.0732448c-1.442538-1.4425382-2.972126-2.7379208-4.539021-3.9628347-7.293522 22.2950899-28.25385 38.4075779-52.986332 38.4075779h-45.67623l34.376348 34.37842c19.005854 19.005854 49.821453 19.005854 68.825235 0 19.005855-19.005855 19.005855-49.819381 0-68.8231632"/></g><path d="m184.027244 23.1080724c-2.041524 0-4.049885.138865-6.025084.3834332 10.622138 20.9271661 7.198182 47.1540018-10.296738 64.648922l-32.297517 32.2995894h48.619339c26.875563 0 48.664936-21.7893726 48.664936-48.6670085.002072-26.877636-21.787301-48.6649361-48.664936-48.6649361" fill="#ed9a2d"/><path d="m162.704208 14.305688c-19.005854-19.00378186-49.819381-19.00378186-68.8252352.0020727-1.4404655 1.4425381-2.7358482 2.972126-3.960762 4.5410934 22.2950902 7.2935226 38.4075782 28.2517779 38.4075782 52.9842601v45.6783018l34.295515-34.2975878.082904-.0808319c19.005855-19.0058545 19.005855-49.8193811 0-68.8273083" fill="#5698c6"/><path d="m88.9958983 88.1735894 1.384505 1.4446107 30.8342527 30.8342529h.033162v-48.5074177-.1160663c0-26.8776359-21.789373-48.6670087-48.6670089-48.6670087s-48.6670087 21.7873002-48.6649361 48.6649361c0 2.0373779.138865 4.0395213.3813606 6.0105756 20.9396018-10.6159201 47.2016719-7.1608754 64.6986647 10.3361174" fill="#5698c6"/><path d="m19.7975924 165.515189c.3813607-1.131646.7917379-2.246712 1.2414948-3.345196.0559605-.138865.1057032-.279803.1637363-.414523.4932817-1.181389 1.0363062-2.331689 1.6062745-3.46748.1243568-.250786.2528587-.497427.3834333-.748213.5865493-1.127501 1.2041877-2.236349 1.8632784-3.31618.0704689-.116066.1471555-.225915.2176243-.337836.6259289-1.009362 1.2870922-1.989707 1.9751995-2.953472.1409377-.198971.2798027-.400014.4248855-.596912.7399226-1.00729 1.5109344-1.985563 2.3130353-2.938965.1637364-.194825.3295454-.383433.497427-.572041.7834474-.907804 1.5917662-1.792809 2.4311742-2.646725.074614-.074615.1430102-.153374.2176243-.227988.8932958-.897441 1.8238988-1.755502 2.7752278-2.588693.2072612-.182389.4145224-.362707.6238563-.540951.9575469-.81661 1.9378925-1.60213 2.9472546-2.354488.1326472-.097413.2715122-.188608.4041594-.283948.9430386-.686034 1.9088759-1.34098 2.8954394-1.968981.1948255-.124357.3875785-.252859.5844766-.375143 1.0653227-.659091 2.1555168-1.278802 3.266437-1.867424.2342052-.122284.470483-.240423.7067608-.360634 1.1088475-.565824 2.2322034-1.106775 3.3804306-1.597984.0559605-.022799.1098484-.049743.1658089-.074615 1.1876069-.503644 2.4021577-.953401 3.6312167-1.376214.2652944-.091195.5285162-.18239.7958832-.26944 1.2166234-.395869 2.4498277-.760648 3.7016855-1.077758.1906803-.045598.3875785-.08705.5782588-.130575 1.1606629-.279802 2.3337614-.520225 3.5192956-.725414.2217695-.037307.4414664-.082904.663236-.116066 1.2870922-.207261 2.5907653-.362707 3.9048015-.478774.2839479-.024871.5699684-.043525.8539162-.066323 1.3596337-.097413 2.7254852-.165809 4.1099902-.165809l45.6783021-.002073-34.37842-34.3784196c-19.0058546-19.0037819-49.8214538-19.0058545-68.8252357 0-19.00585453 19.0058546-19.00585453 49.8193816 0 68.8252356 1.4404655 1.440466 2.9493273 2.771083 4.5141495 3.993924.0518153-.153373.1160663-.300529.1678816-.453902" fill="#5698c6"/><path d="m84.0547906 93.1499314 27.2196174 27.2196166h-36.5857522l-2.0746849.043525c-22.2805819 0-41.0625943-14.972551-46.8368921-35.4043626 18.5353715-10.3941505 42.4284458-7.7059724 58.19688 8.0603892z" fill="#446ba6"/><path d="m121.229164 71.8186059v38.4946281l-25.870346-25.8703467-1.4964261-1.4363203c-15.7559985-15.7539259-18.4503944-39.6242014-8.0852605-58.1533551 20.4566836 5.7577169 35.4520326 24.5542376 35.4520326 46.8493278z" fill="#446ba6"/><path d="m162.853437 83.0956893-27.219617 27.2216897v-36.5857519l-.043525-2.0746849c0-22.2805819 14.972551-41.0646669 35.404363-46.8368921 10.39415 18.5353715 7.705972 42.4284458-8.06039 58.1948073z" fill="#446ba6"/><path d="m183.996154 120.338459h-38.494627l25.870346-25.8703462 1.43632-1.496426c15.753926-15.7559985 39.624202-18.4503945 58.153355-8.0852605-5.757717 20.4566827-24.554237 35.4520327-46.849327 35.4520327z" fill="#fff101"/><path d="m172.627876 161.703655-27.219617-27.219617h36.585752l2.074685-.043525c22.280582.002073 41.062594 14.974624 46.836892 35.406436-18.537444 10.392077-42.428446 7.705972-58.19688-8.062462z" fill="#45ab47"/><path d="m135.526044 182.993528v-38.494628l25.870346 25.870347 1.498499 1.43632c15.753926 15.755999 18.448322 39.622129 8.083188 58.153355-20.456683-5.757717-35.452033-24.552165-35.452033-46.8514z" fill="#45ab47"/><path d="m94.1587755 171.946505 27.2196165-27.22169v36.585752l.043525 2.074685c0 22.280582-14.972551 41.064667-35.4043625 46.838965-10.3941506-18.539517-7.7059725-42.430519 8.0603891-58.19688z" fill="#45ab47"/><path d="m72.8046512 134.685081h38.4946278l-25.8703464 25.870347-1.4363203 1.496426c-15.7559985 15.755998-39.6242014 18.450394-58.1554277 8.08526 5.7597895-20.458755 24.5542375-35.452033 46.8514003-35.452033z" fill="#45ab47"/></svg>

<?xml version="1.0" encoding="UTF-8" standalone="no"?>
<svg width="256px" height="255px" viewBox="0 0 256 255" version="1.1" xmlns="http://www.w3.org/2000/svg" xmlns:xlink="http://www.w3.org/1999/xlink" preserveAspectRatio="xMidYMid">
	<g>
		<path d="M88.9565187,166.907984 L121.256108,134.606322 L72.7528359,134.608395 L72.6367696,134.608395 C45.7591337,134.608395 23.9697609,156.397767 23.9697609,183.273331 C23.9697609,210.153039 45.7570611,231.94034 72.634697,231.94034 C74.6762201,231.94034 76.6845814,231.799402 78.6597809,231.554834 C68.037643,210.62974 71.4615985,184.400832 88.9565187,166.907984" fill="#87C040"></path>
		<path d="M128.336152,183.213225 L128.336152,137.534923 L94.0406366,171.834584 L93.9577321,171.915416 C74.9518775,190.92127 74.9518775,221.734797 93.9577321,240.740651 C112.963587,259.746506 143.777113,259.746506 162.782968,240.740651 C164.225506,239.298113 165.520889,237.766453 166.745802,236.199558 C144.44864,228.906035 128.338224,207.94778 128.336152,183.213225" fill="#87C040"></path>
		<path d="M167.713712,166.897621 L135.414123,134.598032 L135.414123,183.21737 C135.414123,210.097079 157.203496,231.884379 184.081131,231.884379 C210.958767,231.884379 232.74814,210.097079 232.74814,183.219443 C232.74814,181.17792 232.607203,179.169559 232.362634,177.194359 C211.437541,187.81857 185.208633,184.392541 167.713712,166.897621" fill="#87C040"></path>
		<path d="M241.546379,93.0732448 C240.103841,91.6307066 238.574253,90.335324 237.007358,89.1104101 C229.713836,111.4055 208.753508,127.517988 184.021026,127.517988 L138.344796,127.517988 L172.721144,161.896408 C191.726998,180.902262 222.542597,180.902262 241.546379,161.896408 C260.552234,142.890553 260.552234,112.077027 241.546379,93.0732448" fill="#87C040"></path>
		<path d="M184.027244,23.1080724 C181.98572,23.1080724 179.977359,23.2469374 178.00216,23.4915056 C188.624298,44.4186717 185.200342,70.6455074 167.705422,88.1404276 L135.407905,120.440017 L184.027244,120.440017 C210.902807,120.440017 232.69218,98.6506444 232.69218,71.7730085 C232.694252,44.8953725 210.904879,23.1080724 184.027244,23.1080724" fill="#ED9A2D"></path>
		<path d="M162.704208,14.305688 C143.698354,-4.69809386 112.884827,-4.69809386 93.8789728,14.3077607 C92.4385073,15.7502988 91.1431246,17.2798867 89.9182108,18.8488541 C112.213301,26.1423767 128.325789,47.100632 128.325789,71.8331142 L128.325789,117.511416 L162.621304,83.2138282 L162.704208,83.1329963 C181.710063,64.1271418 181.710063,33.3136152 162.704208,14.305688" fill="#5698C6"></path>
		<path d="M88.9958983,88.1735894 L90.3804033,89.6182001 L121.214656,120.452453 L121.247818,120.452453 L121.247818,71.9450353 L121.247818,71.828969 C121.247818,44.9513331 99.458445,23.1619603 72.5808091,23.1619603 C45.7031732,23.1619603 23.9138004,44.9492605 23.915873,71.8268964 C23.915873,73.8642743 24.054738,75.8664177 24.2972336,77.837472 C45.2368354,67.2215519 71.4989055,70.6765966 88.9958983,88.1735894" fill="#5698C6"></path>
		<path d="M19.7975924,165.515189 C20.1789531,164.383543 20.5893303,163.268477 21.0390872,162.169993 C21.0950477,162.031128 21.1447904,161.89019 21.2028235,161.75547 C21.6961052,160.574081 22.2391297,159.423781 22.809098,158.28799 C22.9334548,158.037204 23.0619567,157.790563 23.1925313,157.539777 C23.7790806,156.412276 24.396719,155.303428 25.0558097,154.223597 C25.1262786,154.107531 25.2029652,153.997682 25.273434,153.885761 C25.8993629,152.876399 26.5605262,151.896054 27.2486335,150.932289 C27.3895712,150.733318 27.5284362,150.532275 27.673519,150.335377 C28.4134416,149.328087 29.1844534,148.349814 29.9865543,147.396412 C30.1502907,147.201587 30.3160997,147.012979 30.4839813,146.824371 C31.2674287,145.916567 32.0757475,145.031562 32.9151555,144.177646 C32.9897695,144.103031 33.0581657,144.024272 33.1327798,143.949658 C34.0260756,143.052217 34.9566786,142.194156 35.9080076,141.360965 C36.1152688,141.178576 36.32253,140.998258 36.5318639,140.820014 C37.4894108,140.003404 38.4697564,139.217884 39.4791185,138.465526 C39.6117657,138.368113 39.7506307,138.276918 39.8832779,138.181578 C40.8263165,137.495544 41.7921538,136.840598 42.7787173,136.212597 C42.9735428,136.08824 43.1662958,135.959738 43.3631939,135.837454 C44.4285166,135.178363 45.5187107,134.558652 46.6296309,133.97003 C46.8638361,133.847746 47.1001139,133.729607 47.3363917,133.609396 C48.4452392,133.043572 49.5685951,132.502621 50.7168223,132.011412 C50.7727828,131.988613 50.8266707,131.961669 50.8826312,131.936797 C52.0702381,131.433153 53.2847889,130.983396 54.5138479,130.560583 C54.7791423,130.469388 55.0423641,130.378193 55.3097311,130.291143 C56.5263545,129.895274 57.7595588,129.530495 59.0114166,129.213385 C59.2020969,129.167787 59.3989951,129.126335 59.5896754,129.08281 C60.7503383,128.803008 61.9234368,128.562585 63.108971,128.357396 C63.3307405,128.320089 63.5504374,128.274492 63.772207,128.24133 C65.0592992,128.034069 66.3629723,127.878623 67.6770085,127.762556 C67.9609564,127.737685 68.2469769,127.719031 68.5309247,127.696233 C69.8905584,127.59882 71.2564099,127.530424 72.6409149,127.530424 L118.319217,127.528351 L83.940797,93.1499314 C64.9349424,74.1461495 34.1193432,74.1440769 15.1155613,93.1499314 C-3.89029323,112.155786 -3.89029323,142.969313 15.1155613,161.975167 C16.5560268,163.415633 18.0648886,164.74625 19.6297108,165.969091 C19.6815261,165.815718 19.7457771,165.668562 19.7975924,165.515189" fill="#5698C6"></path>
		<path d="M84.0547906,93.1499314 L111.274408,120.369548 L74.6886558,120.369548 L72.6139709,120.413073 C50.333389,120.413073 31.5513766,105.440522 25.7770788,85.0087104 C44.3124503,74.6145599 68.2055246,77.302738 83.9739588,93.0690996 L84.0547906,93.1499314" fill="#446BA6"></path>
		<path d="M121.229164,71.8186059 L121.229164,110.313234 L95.358818,84.4428873 L93.8623919,83.006567 C78.1063934,67.2526411 75.4119975,43.3823656 85.7771314,24.8532119 C106.233815,30.6109288 121.229164,49.4074495 121.229164,71.7025397 L121.229164,71.8186059" fill="#446BA6"></path>
		<path d="M162.853437,83.0956893 L135.63382,110.317379 L135.63382,73.7316271 L135.590295,71.6569422 C135.590295,49.3763603 150.562846,30.5922753 170.994658,24.8200501 C181.388808,43.3554216 178.70063,67.2484959 162.934268,83.0148574 L162.853437,83.0956893" fill="#446BA6"></path>
		<path d="M183.996154,120.338459 L145.501527,120.338459 L171.371873,94.4681128 L172.808193,92.9716868 C188.562119,77.2156883 212.432395,74.5212923 230.961548,84.8864263 C225.203831,105.343109 206.407311,120.338459 184.112221,120.338459 L183.996154,120.338459" fill="#FFF101"></path>
		<path d="M172.627876,161.703655 L145.408259,134.484038 L181.994011,134.484038 L184.068696,134.440513 C206.349278,134.442586 225.13129,149.415137 230.905588,169.846949 C212.368144,180.239026 188.477142,177.552921 172.708708,161.784487 L172.627876,161.703655" fill="#45AB47"></path>
		<path d="M135.526044,182.993528 L135.526044,144.4989 L161.39639,170.369247 L162.894889,171.805567 C178.648815,187.561566 181.343211,211.427696 170.978077,229.958922 C150.521394,224.201205 135.526044,205.406757 135.526044,183.107522 L135.526044,182.993528" fill="#45AB47"></path>
		<path d="M94.1587755,171.946505 L121.378392,144.724815 L121.378392,181.310567 L121.421917,183.385252 C121.421917,205.665834 106.449366,224.449919 86.0175545,230.224217 C75.6234039,211.6847 78.311582,187.793698 94.0779436,172.027337 L94.1587755,171.946505" fill="#45AB47"></path>
		<path d="M72.8046512,134.685081 L111.299279,134.685081 L85.4289326,160.555428 L83.9926123,162.051854 C68.2366138,177.807852 44.3684109,180.502248 25.8371846,170.137114 C31.5969741,149.678359 50.3914221,134.685081 72.6885849,134.685081 L72.8046512,134.685081" fill="#45AB47"></path>
	</g>
</svg>
